;FLAVOR:Marlin
;TIME:1192
;Filament used: 0.312137m
;Layer height: 0.1
;MINX:182.7
;MINY:190.2
;MINZ:0.3
;MAXX:217.3
;MAXY:209.8
;MAXZ:17
;POSTPROCESSED
;Generated with Cura_SteamEngine 4.4.1
M82 ;absolute extrusion mode
M106 P0 S64
M106 P1
G92 E0
G92 E0
G1 F2400 E-3
;LAYER_COUNT:168
;LAYER:0
M107 P0
G0 F3000 Z25
G0 X184.125 Y191.605
G0 Z0.3
;TYPE:SKIRT
M117 Printing skirt
M118 Printing skirt
G1 F2400 E0
G1 F1800 X184.591 Y191.198 E0.03087
G1 X185.106 Y190.854 E0.06177
G1 X185.661 Y190.579 E0.09267
G1 X186.247 Y190.378 E0.12358
G1 X186.854 Y190.254 E0.15448
G1 X187.374 Y190.211 E0.18052
G1 X187.695 Y190.202 E0.19654
G1 X187.83 Y190.2 E0.20327
G1 X211.862 Y190.2 E1.40223
G1 X212.56 Y190.21 E1.43706
G1 X213.177 Y190.259 E1.46794
G1 X213.783 Y190.387 E1.49884
G1 X214.368 Y190.592 E1.52977
G1 X214.921 Y190.871 E1.56067
G1 X215.434 Y191.218 E1.59157
G1 X215.898 Y191.628 E1.62246
G1 X216.305 Y192.095 E1.65336
G1 X216.648 Y192.61 E1.68423
G1 X216.923 Y193.166 E1.71518
G1 X217.123 Y193.752 E1.74607
G1 X217.247 Y194.359 E1.77698
G1 X217.289 Y194.875 E1.80281
G1 X217.298 Y195.195 E1.81878
G1 X217.3 Y195.33 E1.82552
G1 X217.3 Y204.323 E2.27418
G1 X217.291 Y205.05 E2.31045
G1 X217.243 Y205.668 E2.34138
G1 X217.116 Y206.274 E2.37227
G1 X216.913 Y206.859 E2.40316
G1 X216.635 Y207.413 E2.43408
G1 X216.289 Y207.926 E2.46496
G1 X215.879 Y208.391 E2.49588
G1 X215.413 Y208.799 E2.52678
G1 X214.899 Y209.143 E2.55764
G1 X214.344 Y209.419 E2.58857
G1 X213.758 Y209.621 E2.61949
G1 X213.152 Y209.745 E2.65035
G1 X212.626 Y209.789 E2.67668
G1 X212.305 Y209.798 E2.6927
G1 X212.17 Y209.8 E2.69944
G1 X188.145 Y209.8 E3.89805
G1 X187.447 Y209.791 E3.93288
G1 X186.83 Y209.743 E3.96375
G1 X186.223 Y209.616 E3.99469
G1 X185.639 Y209.412 E4.02555
G1 X185.085 Y209.134 E4.05648
G1 X184.572 Y208.787 E4.08738
G1 X184.107 Y208.378 E4.11827
G1 X183.7 Y207.911 E4.14918
G1 X183.355 Y207.397 E4.18006
G1 X183.08 Y206.842 E4.21096
G1 X182.879 Y206.256 E4.24187
G1 X182.754 Y205.649 E4.27279
G1 X182.711 Y205.121 E4.29922
G1 X182.702 Y204.788 E4.31584
G1 X182.7 Y204.658 E4.32233
G1 X182.7 Y195.609 E4.77378
G1 X182.709 Y194.944 E4.80696
G1 X182.758 Y194.327 E4.83784
G1 X182.885 Y193.72 E4.86878
G1 X183.09 Y193.136 E4.89966
G1 X183.368 Y192.582 E4.93058
G1 X183.715 Y192.069 E4.96148
G1 X184.125 Y191.605 E4.99237
G0 F3000 X184.516 Y191.784
G1 F1800 X184.977 Y191.411 E5.02196
G1 X185.484 Y191.103 E5.05156
G1 X186.027 Y190.866 E5.08111
G1 X186.598 Y190.704 E5.11073
G1 X187.386 Y190.611 E5.15031
G1 X187.707 Y190.602 E5.16633
G1 X187.83 Y190.6 E5.17247
G1 X211.856 Y190.6 E6.37113
G1 X212.554 Y190.61 E6.40596
G1 X213.145 Y190.659 E6.43555
G1 X213.724 Y190.786 E6.46512
G1 X214.281 Y190.99 E6.49471
G1 X214.805 Y191.268 E6.52431
G1 X215.287 Y191.613 E6.55388
G1 X215.719 Y192.02 E6.58349
G1 X216.091 Y192.481 E6.61304
G1 X216.399 Y192.988 E6.64264
G1 X216.635 Y193.532 E6.67222
G1 X216.796 Y194.102 E6.70177
G1 X216.889 Y194.886 E6.74116
G1 X216.898 Y195.206 E6.75713
G1 X216.9 Y195.33 E6.76332
G1 X216.9 Y204.318 E7.21173
G1 X216.891 Y205.045 E7.24801
G1 X216.843 Y205.637 E7.27764
G1 X216.717 Y206.216 E7.3072
G1 X216.514 Y206.773 E7.33678
G1 X216.238 Y207.298 E7.36637
G1 X215.894 Y207.781 E7.39595
G1 X215.488 Y208.213 E7.42553
G1 X215.027 Y208.586 E7.45511
G1 X214.521 Y208.895 E7.48469
G1 X213.978 Y209.132 E7.51425
G1 X213.407 Y209.295 E7.54388
G1 X212.614 Y209.389 E7.58372
G1 X212.293 Y209.398 E7.59974
G1 X212.17 Y209.4 E7.60588
G1 X188.15 Y209.4 E8.80424
G1 X187.452 Y209.391 E8.83906
G1 X186.861 Y209.343 E8.86865
G1 X186.282 Y209.216 E8.89822
G1 X185.725 Y209.013 E8.9278
G1 X185.2 Y208.737 E8.95739
G1 X184.718 Y208.392 E8.98696
G1 X184.286 Y207.986 E9.01654
G1 X183.912 Y207.525 E9.04615
G1 X183.604 Y207.019 E9.07571
G1 X183.367 Y206.475 E9.10531
G1 X183.205 Y205.905 E9.13487
G1 X183.111 Y205.11 E9.17481
G1 X183.102 Y204.777 E9.19143
G1 X183.1 Y204.658 E9.19737
G1 X183.1 Y195.614 E9.64858
G1 X183.109 Y194.949 E9.68176
G1 X183.157 Y194.358 E9.71134
G1 X183.284 Y193.779 E9.74091
G1 X183.488 Y193.222 E9.77051
G1 X183.765 Y192.698 E9.80008
G1 X184.11 Y192.216 E9.82965
G1 X184.516 Y191.784 E9.85923
G0 F3000 X184.504 Y192.369
G1 F1800 X184.906 Y191.972 E9.88741
G1 X185.36 Y191.635 E9.91562
G1 X185.857 Y191.366 E9.94382
G1 X186.387 Y191.169 E9.97203
G1 X186.94 Y191.05 E10.00025
G1 X187.397 Y191.011 E10.02313
G1 X187.718 Y191.002 E10.03915
G1 X187.83 Y191.0 E10.04474
G1 X211.85 Y191.0 E11.2431
G1 X212.548 Y191.01 E11.27793
G1 X213.112 Y191.058 E11.30617
G1 X213.662 Y191.185 E11.33433
G1 X214.19 Y191.389 E11.36257
G1 X214.684 Y191.664 E11.39078
G1 X215.133 Y192.007 E11.41897
G1 X215.53 Y192.409 E11.44715
G1 X215.867 Y192.864 E11.4754
G1 X216.135 Y193.361 E11.50357
G1 X216.331 Y193.891 E11.53176
G1 X216.451 Y194.444 E11.56
G1 X216.489 Y194.898 E11.58273
G1 X216.498 Y195.218 E11.5987
G1 X216.5 Y195.33 E11.60429
G1 X216.5 Y204.314 E12.0525
G1 X216.491 Y205.041 E12.08877
G1 X216.444 Y205.604 E12.11696
G1 X216.318 Y206.155 E12.14516
G1 X216.116 Y206.683 E12.17336
G1 X215.841 Y207.177 E12.20157
G1 X215.499 Y207.627 E12.22977
G1 X215.097 Y208.025 E12.25799
G1 X214.644 Y208.362 E12.28616
G1 X214.147 Y208.632 E12.31438
G1 X213.617 Y208.829 E12.34258
G1 X213.065 Y208.95 E12.37078
G1 X212.603 Y208.989 E12.39391
G1 X212.282 Y208.998 E12.40993
G1 X212.17 Y209.0 E12.41552
G1 X188.155 Y209.0 E13.61363
G1 X187.457 Y208.991 E13.64846
G1 X186.894 Y208.943 E13.67665
G1 X186.343 Y208.817 E13.70485
G1 X185.815 Y208.615 E13.73305
G1 X185.321 Y208.34 E13.76126
G1 X184.871 Y207.998 E13.78946
G1 X184.473 Y207.596 E13.81768
G1 X184.137 Y207.142 E13.84586
G1 X183.867 Y206.645 E13.87408
G1 X183.67 Y206.115 E13.90229
G1 X183.55 Y205.563 E13.93047
G1 X183.51 Y205.099 E13.9537
G1 X183.501 Y204.766 E13.97032
G1 X183.5 Y204.658 E13.97571
G1 X183.5 Y195.62 E14.42662
G1 X183.509 Y194.955 E14.4598
G1 X183.557 Y194.392 E14.48799
G1 X183.683 Y193.841 E14.51619
G1 X183.886 Y193.313 E14.54441
G1 X184.162 Y192.819 E14.57264
G1 X184.504 Y192.369 E14.60084
G0 F3000 X184.897 Y192.531
G1 F1800 X185.294 Y192.171 E14.62758
G1 X185.741 Y191.873 E14.65438
G1 X186.226 Y191.645 E14.68112
G1 X186.74 Y191.492 E14.70787
G1 X187.408 Y191.41 E14.74145
G1 X187.729 Y191.401 E14.75747
G1 X187.83 Y191.4 E14.76251
G1 X211.845 Y191.4 E15.96062
G1 X212.543 Y191.41 E15.99545
G1 X213.077 Y191.458 E16.0222
G1 X213.598 Y191.584 E16.04894
G1 X214.095 Y191.787 E16.07572
G1 X214.556 Y192.061 E16.10248
G1 X214.971 Y192.4 E16.12921
G1 X215.331 Y192.798 E16.15599
G1 X215.628 Y193.244 E16.18272
G1 X215.856 Y193.73 E16.2095
G1 X216.008 Y194.244 E16.23624
G1 X216.09 Y194.909 E16.26967
G1 X216.099 Y195.229 E16.28564
G1 X216.1 Y195.33 E16.29068
G1 X216.1 Y204.309 E16.73865
G1 X216.091 Y205.036 E16.77492
G1 X216.044 Y205.57 E16.80166
G1 X215.919 Y206.091 E16.82839
G1 X215.717 Y206.588 E16.85516
G1 X215.444 Y207.05 E16.88193
G1 X215.106 Y207.466 E16.90867
G1 X214.709 Y207.827 E16.93544
G1 X214.263 Y208.125 E16.96221
G1 X213.778 Y208.353 E16.98894
G1 X213.264 Y208.507 E17.01571
G1 X212.592 Y208.59 E17.04949
G1 X212.271 Y208.599 E17.06551
G1 X212.17 Y208.6 E17.07055
G1 X188.161 Y208.6 E18.26837
G1 X187.463 Y208.591 E18.30319
G1 X186.928 Y208.544 E18.32999
G1 X186.407 Y208.418 E18.35673
G1 X185.91 Y208.216 E18.38349
G1 X185.449 Y207.943 E18.41022
G1 X185.033 Y207.604 E18.437
G1 X184.672 Y207.208 E18.46373
G1 X184.374 Y206.762 E18.49049
G1 X184.146 Y206.276 E18.51727
G1 X183.993 Y205.762 E18.54403
G1 X183.91 Y205.088 E18.57791
G1 X183.901 Y204.755 E18.59453
G1 X183.9 Y204.658 E18.59937
G1 X183.9 Y195.625 E19.05003
G1 X183.909 Y194.96 E19.08321
G1 X183.957 Y194.426 E19.10996
G1 X184.083 Y193.905 E19.1367
G1 X184.285 Y193.408 E19.16346
G1 X184.558 Y192.947 E19.19019
G1 X184.897 Y192.531 E19.21697
G0 F3000 X185.289 Y192.704
G1 F1800 X185.68 Y192.383 E19.2422
G1 X186.117 Y192.128 E19.26745
G1 X186.588 Y191.944 E19.29267
G1 X187.082 Y191.838 E19.31788
G1 X187.419 Y191.81 E19.33475
G1 X187.74 Y191.801 E19.35077
G1 X187.83 Y191.8 E19.35526
G1 X211.839 Y191.8 E20.55308
G1 X212.537 Y191.81 E20.5879
G1 X213.04 Y191.857 E20.61311
G1 X213.53 Y191.983 E20.63835
G1 X213.994 Y192.185 E20.6636
G1 X214.42 Y192.457 E20.68881
G1 X214.798 Y192.792 E20.71401
G1 X215.118 Y193.183 E20.73922
G1 X215.373 Y193.62 E20.76446
G1 X215.556 Y194.091 E20.78967
G1 X215.663 Y194.585 E20.81489
G1 X215.69 Y194.92 E20.83166
G1 X215.699 Y195.24 E20.84763
G1 X215.7 Y195.33 E20.85212
G1 X215.7 Y204.304 E21.29983
G1 X215.691 Y205.031 E21.33611
G1 X215.645 Y205.534 E21.36131
G1 X215.52 Y206.024 E21.38653
G1 X215.319 Y206.488 E21.41176
G1 X215.048 Y206.915 E21.43699
G1 X214.713 Y207.294 E21.46223
G1 X214.323 Y207.615 E21.48743
G1 X213.887 Y207.871 E21.51265
G1 X213.416 Y208.054 E21.53786
G1 X212.922 Y208.162 E21.56309
G1 X212.581 Y208.19 E21.58016
G1 X212.26 Y208.199 E21.59618
G1 X212.17 Y208.2 E21.60067
G1 X188.166 Y208.2 E22.79824
G1 X187.468 Y208.191 E22.83306
G1 X186.964 Y208.144 E22.85832
G1 X186.474 Y208.019 E22.88355
G1 X186.01 Y207.818 E22.90877
G1 X185.584 Y207.547 E22.93396
G1 X185.205 Y207.212 E22.9592
G1 X184.884 Y206.821 E22.98444
G1 X184.629 Y206.385 E23.00964
G1 X184.445 Y205.914 E23.03487
G1 X184.338 Y205.42 E23.06008
G1 X184.31 Y205.077 E23.07725
G1 X184.301 Y204.744 E23.09387
G1 X184.3 Y204.658 E23.09816
G1 X184.3 Y195.631 E23.54852
G1 X184.309 Y194.966 E23.5817
G1 X184.356 Y194.462 E23.60695
G1 X184.482 Y193.973 E23.63215
G1 X184.683 Y193.509 E23.65738
G1 X184.954 Y193.082 E23.68261
G1 X185.289 Y192.704 E23.70781
G1 F2400 E20.70781
;MESH:Retraction Test Towers.stl
G0 F3000 X188.114 Y194.335
G0 X188.114 Y195.614
G0 X188.5 Y204.0
;TYPE:WALL-INNER
G1 F2400 E23.70781
G1 F1800 X188.5 Y196.0 E24.10693
G1 X211.5 Y196.0 E25.2544
G1 X211.5 Y204.0 E25.65352
G1 X188.5 Y204.0 E26.801
G0 F3000 X188.1 Y204.4
G1 F1800 X188.1 Y195.6 E27.24003
G1 X211.9 Y195.6 E28.42742
G1 X211.9 Y204.4 E28.86645
G1 X188.1 Y204.4 E30.05384
G0 F3000 X187.7 Y204.8
;TYPE:WALL-OUTER
G1 F1800 X187.7 Y195.2 E30.53279
G1 X212.3 Y195.2 E31.76008
G1 X212.3 Y204.8 E32.23903
G1 X187.7 Y204.8 E33.46633
G0 F3000 X187.7 Y204.6
G0 X188.14 Y204.36
G0 X188.2 Y204.36
G0 X188.89 Y203.61
;TYPE:SKIN
M117 Printing base
M118 Printing base
G1 F1800 X188.89 Y196.39 E33.82654
G1 X211.11 Y196.39 E34.9351
G1 X211.11 Y203.61 E35.2953
G1 X188.89 Y203.61 E36.40386
G0 F3000 X207.53 Y200.03
G1 F1800 X192.47 Y200.03 E37.15521
G1 X192.47 Y199.97 E37.1582
G1 X207.53 Y199.97 E37.90955
G1 X207.53 Y200.03 E37.91254
G0 F3000 X207.93 Y200.43
G1 F1800 X192.07 Y200.43 E38.7038
G1 X192.07 Y199.57 E38.74671
G1 X207.93 Y199.57 E39.53797
G1 X207.93 Y200.43 E39.58087
G0 F3000 X208.33 Y200.83
G1 F1800 X191.67 Y200.83 E40.41204
G1 X191.67 Y199.17 E40.49486
G1 X208.33 Y199.17 E41.32603
G1 X208.33 Y200.83 E41.40885
G0 F3000 X208.73 Y201.23
G1 F1800 X191.27 Y201.23 E42.27993
G1 X191.27 Y198.77 E42.40266
G1 X208.73 Y198.77 E43.27375
G1 X208.73 Y201.23 E43.39648
G0 F3000 X209.13 Y201.63
G1 F1800 X190.87 Y201.63 E44.30747
G1 X190.87 Y198.37 E44.47011
G1 X209.13 Y198.37 E45.38111
G1 X209.13 Y201.63 E45.54375
G0 F3000 X209.53 Y202.03
G1 F1800 X190.47 Y202.03 E46.49466
G1 X190.47 Y197.97 E46.69721
G1 X209.53 Y197.97 E47.64812
G1 X209.53 Y202.03 E47.85067
G0 F3000 X209.93 Y202.43
G1 F1800 X190.07 Y202.43 E48.84149
G1 X190.07 Y197.57 E49.08396
G1 X209.93 Y197.57 E50.07478
G1 X209.93 Y202.43 E50.31724
G0 F3000 X210.33 Y202.83
G1 F1800 X189.67 Y202.83 E51.34798
G1 X189.67 Y197.17 E51.63035
G1 X210.33 Y197.17 E52.66109
G1 X210.33 Y202.83 E52.94346
G0 F3000 X210.73 Y203.23
G1 F1800 X189.27 Y203.23 E54.01411
G1 X189.27 Y196.77 E54.3364
G1 X210.73 Y196.77 E55.40704
G1 X210.73 Y203.23 E55.72933
;MESH:NONMESH
G0 F600 X210.73 Y203.23 Z0.4
G0 F3000 X188.9 Y203.6
;TIME_ELAPSED:45.695086
;LAYER:1
M140 S80
M106 S85 P0
;TYPE:WALL-INNER
;MESH:Retraction Test Towers.stl
G1 F1800 X188.9 Y196.4 E55.84907
G1 X211.1 Y196.4 E56.21826
G1 X211.1 Y203.6 E56.33799
G1 X188.9 Y203.6 E56.70718
G0 F3000 X188.5 Y204.0
G1 F1800 X188.5 Y196.0 E56.84022
G1 X211.5 Y196.0 E57.22271
G1 X211.5 Y204.0 E57.35575
G1 X188.5 Y204.0 E57.73825
G0 F3000 X188.1 Y204.4
G1 F1800 X188.1 Y195.6 E57.88459
G1 X211.9 Y195.6 E58.28039
G1 X211.9 Y204.4 E58.42673
G1 X188.1 Y204.4 E58.82253
G0 F3000 X187.7 Y204.8
;TYPE:WALL-OUTER
G1 F1800 X187.7 Y195.2 E58.98217
G1 X212.3 Y195.2 E59.39127
G1 X212.3 Y204.8 E59.55092
G1 X187.7 Y204.8 E59.96002
G0 F3000 X187.7 Y204.6
G0 X188.14 Y204.36
G0 X188.2 Y204.36
G0 X189.29 Y203.21
;TYPE:SKIN
G1 F1800 X189.29 Y196.79 E60.06679
G1 X210.71 Y196.79 E60.423
G1 X210.71 Y203.21 E60.52977
G1 X189.29 Y203.21 E60.88598
G0 F3000 X189.47 Y197.2
G1 F1800 X210.53 Y197.2 E61.23621
G0 F3000 X210.53 Y197.6
G1 F1800 X189.47 Y197.6 E61.58644
G0 F3000 X189.47 Y198.0
G1 F1800 X210.53 Y198.0 E61.93667
G0 F3000 X210.53 Y198.4
G1 F1800 X189.47 Y198.4 E62.2869
G0 F3000 X189.47 Y198.8
G1 F1800 X210.53 Y198.8 E62.63713
G0 F3000 X210.53 Y199.2
G1 F1800 X189.47 Y199.2 E62.98736
G0 F3000 X189.47 Y199.6
G1 F1800 X210.53 Y199.6 E63.33759
G0 F3000 X210.53 Y200.0
G1 F1800 X189.47 Y200.0 E63.68782
G0 F3000 X189.47 Y200.4
G1 F1800 X210.53 Y200.4 E64.03805
G0 F3000 X210.53 Y200.8
G1 F1800 X189.47 Y200.8 E64.38828
G0 F3000 X189.47 Y201.2
G1 F1800 X210.53 Y201.2 E64.73851
G0 F3000 X210.53 Y201.6
G1 F1800 X189.47 Y201.6 E65.08874
G0 F3000 X189.47 Y202.0
G1 F1800 X210.53 Y202.0 E65.43896
G0 F3000 X210.53 Y202.4
G1 F1800 X189.47 Y202.4 E65.78919
G0 F3000 X189.47 Y202.8
G1 F1800 X210.53 Y202.8 E66.13942
G1 X210.63 Y202.8
;MESH:NONMESH
G0 F600 X210.63 Y202.8 Z0.5
G0 F3000 X188.5 Y204.0
;TIME_ELAPSED:67.581241
;LAYER:2
M106 S170 P0
;TYPE:WALL-INNER
;MESH:Retraction Test Towers.stl
G1 F1800 X188.5 Y196.0 E66.27246
G1 X211.5 Y196.0 E66.65496
G1 X211.5 Y204.0 E66.788
G1 X188.5 Y204.0 E67.17049
G0 F3000 X188.1 Y204.4
G1 F1800 X188.1 Y195.6 E67.31683
G1 X211.9 Y195.6 E67.71263
G1 X211.9 Y204.4 E67.85897
G1 X188.1 Y204.4 E68.25477
G0 F3000 X187.7 Y204.8
;TYPE:WALL-OUTER
G1 F1800 X187.7 Y195.2 E68.41442
G1 X212.3 Y195.2 E68.82352
G1 X212.3 Y204.8 E68.98316
G1 X187.7 Y204.8 E69.39226
G0 F3000 X187.7 Y204.6
G0 X188.14 Y204.36
G0 X188.2 Y204.36
G0 X188.89 Y203.61
;TYPE:SKIN
G1 F1800 X188.89 Y196.39 E69.51233
G1 X211.11 Y196.39 E69.88185
G1 X211.11 Y203.61 E70.00192
G1 X188.89 Y203.61 E70.37144
G0 F3000 X189.2 Y203.43
G1 F1800 X189.2 Y196.57 E70.48552
G0 F3000 X189.6 Y196.57
G1 F1800 X189.6 Y203.43 E70.59961
G0 F3000 X190.0 Y203.43
G1 F1800 X190.0 Y196.57 E70.71369
G0 F3000 X190.4 Y196.57
G1 F1800 X190.4 Y203.43 E70.82777
G0 F3000 X190.8 Y203.43
G1 F1800 X190.8 Y196.57 E70.94185
G0 F3000 X191.2 Y196.57
G1 F1800 X191.2 Y203.43 E71.05594
G0 F3000 X191.6 Y203.43
G1 F1800 X191.6 Y196.57 E71.17002
G0 F3000 X192.0 Y196.57
G1 F1800 X192.0 Y203.43 E71.2841
G0 F3000 X192.4 Y203.43
G1 F1800 X192.4 Y196.57 E71.39818
G0 F3000 X192.8 Y196.57
G1 F1800 X192.8 Y203.43 E71.51227
G0 F3000 X193.2 Y203.43
G1 F1800 X193.2 Y196.57 E71.62635
G0 F3000 X193.6 Y196.57
G1 F1800 X193.6 Y203.43 E71.74043
G0 F3000 X194.0 Y203.43
G1 F1800 X194.0 Y196.57 E71.85451
G0 F3000 X194.4 Y196.57
G1 F1800 X194.4 Y203.43 E71.96859
G0 F3000 X194.8 Y203.43
G1 F1800 X194.8 Y196.57 E72.08268
G0 F3000 X195.2 Y196.57
G1 F1800 X195.2 Y203.43 E72.19676
G0 F3000 X195.6 Y203.43
G1 F1800 X195.6 Y196.57 E72.31084
G0 F3000 X196.0 Y196.57
G1 F1800 X196.0 Y203.43 E72.42492
G0 F3000 X196.4 Y203.43
G1 F1800 X196.4 Y196.57 E72.53901
G0 F3000 X196.8 Y196.57
G1 F1800 X196.8 Y203.43 E72.65309
G0 F3000 X197.2 Y203.43
G1 F1800 X197.2 Y196.57 E72.76717
G0 F3000 X197.6 Y196.57
G1 F1800 X197.6 Y203.43 E72.88125
G0 F3000 X198.0 Y203.43
G1 F1800 X198.0 Y196.57 E72.99533
G0 F3000 X198.4 Y196.57
G1 F1800 X198.4 Y203.43 E73.10942
G0 F3000 X198.8 Y203.43
G1 F1800 X198.8 Y196.57 E73.2235
G0 F3000 X199.2 Y196.57
G1 F1800 X199.2 Y203.43 E73.33758
G0 F3000 X199.6 Y203.43
G1 F1800 X199.6 Y196.57 E73.45166
G0 F3000 X200.0 Y196.57
G1 F1800 X200.0 Y203.43 E73.56575
G0 F3000 X200.4 Y203.43
G1 F1800 X200.4 Y196.57 E73.67983
G0 F3000 X200.8 Y196.57
G1 F1800 X200.8 Y203.43 E73.79391
G0 F3000 X201.2 Y203.43
G1 F1800 X201.2 Y196.57 E73.90799
G0 F3000 X201.6 Y196.57
G1 F1800 X201.6 Y203.43 E74.02208
