;FLAVOR:Marlin
;TIME:1263
;Filament used: 0.309316m
;Layer height: 0.1
;MINX:127.4
;MINY:134.9
;MINZ:0.12
;MAXX:168
;MAXY:160.5
;MAXZ:16.92
;Generated with Cura_SteamEngine 4.8.0
M140 S60
M105
M190 S60
M104 S200
M105
M109 S200
M82 ;absolute extrusion mode
; -- START GCODE --
// action:showprep
G21                     ;set units to millimetres
G90                     ;set to absolute positioning
M106 S0                 ;set fan speed to zero (turned off)
G28                     ;home all axis
G92 E0                  ;zero the extruded length
G1 Z1 F1000             ;move up slightly
G1 X60.0 Z0 E9.0 F1000.0;intro line
G1 X100.0 E21.5 F1000.0 ;continue line
G92 E0                  ;zero the extruded length again
; -- end of START GCODE --
// action:showstart
G92 E0
G92 E0
G1 F2700 E-8
;LAYER_COUNT:169
;LAYER:0
M107
G0 F3600 X129.802 Y137.185 Z0.12
;TYPE:SKIRT
G1 F2700 E0
G1 F1050 X130.388 Y136.655 E0.01577
G1 X131.024 Y136.188 E0.03151
G1 X131.704 Y135.787 E0.04727
G1 X132.422 Y135.457 E0.06304
G1 X133.169 Y135.202 E0.07879
G1 X133.938 Y135.023 E0.09455
G1 X134.722 Y134.923 E0.11032
G1 X135.317 Y134.9 E0.1222
G1 X160.083 Y134.9 E0.61643
G1 X160.872 Y134.94 E0.6322
G1 X161.652 Y135.059 E0.64794
G1 X162.417 Y135.257 E0.66371
G1 X163.157 Y135.531 E0.67946
G1 X163.866 Y135.879 E0.69522
G1 X164.537 Y136.297 E0.711
G1 X165.161 Y136.78 E0.72675
G1 X165.598 Y137.185 E0.73864
G1 X165.715 Y137.302 E0.74194
G1 X166.245 Y137.888 E0.75771
G1 X166.712 Y138.524 E0.77345
G1 X167.113 Y139.204 E0.78921
G1 X167.443 Y139.922 E0.80498
G1 X167.698 Y140.669 E0.82073
G1 X167.877 Y141.438 E0.83648
G1 X167.977 Y142.222 E0.85226
G1 X168 Y142.817 E0.86414
G1 X168 Y152.583 E1.05903
G1 X167.96 Y153.372 E1.0748
G1 X167.841 Y154.152 E1.09054
G1 X167.643 Y154.917 E1.10631
G1 X167.369 Y155.657 E1.12206
G1 X167.021 Y156.366 E1.13782
G1 X166.603 Y157.037 E1.1536
G1 X166.12 Y157.661 E1.16934
G1 X165.715 Y158.098 E1.18123
G1 X165.598 Y158.215 E1.18453
G1 X165.012 Y158.745 E1.2003
G1 X164.376 Y159.212 E1.21605
G1 X163.696 Y159.613 E1.2318
G1 X162.978 Y159.943 E1.24757
G1 X162.231 Y160.198 E1.26332
G1 X161.462 Y160.377 E1.27908
G1 X160.678 Y160.477 E1.29485
G1 X160.083 Y160.5 E1.30674
G1 X135.317 Y160.5 E1.80097
G1 X134.528 Y160.46 E1.81673
G1 X133.748 Y160.341 E1.83248
G1 X132.983 Y160.143 E1.84825
G1 X132.243 Y159.869 E1.864
G1 X131.534 Y159.521 E1.87976
G1 X130.863 Y159.103 E1.89553
G1 X130.239 Y158.62 E1.91128
G1 X129.802 Y158.215 E1.92317
G1 X129.685 Y158.098 E1.92647
G1 X129.155 Y157.512 E1.94224
G1 X128.688 Y156.876 E1.95799
G1 X128.287 Y156.196 E1.97374
G1 X127.957 Y155.478 E1.98951
G1 X127.702 Y154.731 E2.00526
G1 X127.523 Y153.962 E2.02102
G1 X127.423 Y153.178 E2.03679
G1 X127.4 Y152.583 E2.04867
G1 X127.4 Y142.817 E2.24356
G1 X127.44 Y142.028 E2.25933
G1 X127.559 Y141.248 E2.27508
G1 X127.757 Y140.483 E2.29085
G1 X128.031 Y139.743 E2.30659
G1 X128.379 Y139.034 E2.32235
G1 X128.797 Y138.363 E2.33813
G1 X129.28 Y137.739 E2.35388
G1 X129.685 Y137.302 E2.36577
G1 X129.802 Y137.185 E2.36907
G0 F3600 X130.084 Y137.467
G1 F1050 X130.656 Y136.953 E2.38442
G1 X131.278 Y136.5 E2.39977
G1 X131.943 Y136.114 E2.41512
G1 X132.645 Y135.799 E2.43047
G1 X133.376 Y135.559 E2.44582
G1 X134.127 Y135.396 E2.46116
G1 X134.892 Y135.312 E2.47652
G1 X135.317 Y135.3 E2.485
G1 X160.083 Y135.3 E2.97924
G1 X160.851 Y135.34 E2.99458
G1 X161.611 Y135.459 E3.00993
G1 X162.354 Y135.657 E3.02528
G1 X163.073 Y135.931 E3.04063
G1 X163.759 Y136.278 E3.05598
G1 X164.406 Y136.694 E3.07133
G1 X165.006 Y137.175 E3.08667
G1 X165.433 Y137.584 E3.09847
G1 X165.947 Y138.156 E3.11382
G1 X166.4 Y138.778 E3.12917
G1 X166.786 Y139.443 E3.14452
G1 X167.101 Y140.145 E3.15987
G1 X167.341 Y140.876 E3.17523
G1 X167.504 Y141.627 E3.19056
G1 X167.588 Y142.392 E3.20592
G1 X167.6 Y142.817 E3.21441
G1 X167.6 Y152.583 E3.4093
G1 X167.56 Y153.351 E3.42464
G1 X167.441 Y154.111 E3.44
G1 X167.243 Y154.854 E3.45534
G1 X166.969 Y155.573 E3.4707
G1 X166.622 Y156.259 E3.48604
G1 X166.206 Y156.906 E3.50139
G1 X165.725 Y157.506 E3.51673
G1 X165.316 Y157.933 E3.52853
G1 X164.744 Y158.447 E3.54388
G1 X164.122 Y158.9 E3.55924
G1 X163.457 Y159.286 E3.57458
G1 X162.755 Y159.601 E3.58993
G1 X162.024 Y159.841 E3.60529
G1 X161.273 Y160.004 E3.62062
G1 X160.508 Y160.088 E3.63598
G1 X160.083 Y160.1 E3.64447
G1 X135.317 Y160.1 E4.1387
G1 X134.549 Y160.06 E4.15405
G1 X133.789 Y159.941 E4.1694
G1 X133.046 Y159.743 E4.18474
G1 X132.327 Y159.469 E4.2001
G1 X131.641 Y159.122 E4.21544
G1 X130.994 Y158.706 E4.23079
G1 X130.394 Y158.225 E4.24614
G1 X129.967 Y157.816 E4.25794
G1 X129.453 Y157.244 E4.27328
G1 X129 Y156.622 E4.28864
G1 X128.614 Y155.957 E4.30398
G1 X128.299 Y155.255 E4.31934
G1 X128.059 Y154.524 E4.33469
G1 X127.896 Y153.773 E4.35003
G1 X127.812 Y153.008 E4.36539
G1 X127.8 Y152.583 E4.37387
G1 X127.8 Y142.817 E4.56876
G1 X127.84 Y142.049 E4.58411
G1 X127.959 Y141.289 E4.59946
G1 X128.157 Y140.546 E4.6148
G1 X128.431 Y139.827 E4.63016
G1 X128.778 Y139.141 E4.6455
G1 X129.194 Y138.494 E4.66085
G1 X129.675 Y137.894 E4.6762
G1 X130.084 Y137.467 E4.688
G0 F3600 X130.367 Y137.75
G1 F1050 X130.924 Y137.25 E4.70293
G1 X131.53 Y136.813 E4.71784
G1 X132.18 Y136.442 E4.73278
G1 X132.866 Y136.143 E4.74771
G1 X133.58 Y135.919 E4.76265
G1 X134.313 Y135.772 E4.77757
G1 X135.317 Y135.7 E4.79765
G1 X160.083 Y135.7 E5.29189
G1 X160.83 Y135.74 E5.30681
G1 X161.568 Y135.859 E5.32173
G1 X162.29 Y136.057 E5.33667
G1 X162.986 Y136.33 E5.35159
G1 X163.649 Y136.677 E5.36653
G1 X164.272 Y137.092 E5.38146
G1 X165.033 Y137.75 E5.40154
G1 X165.15 Y137.867 E5.40484
G1 X165.65 Y138.424 E5.41978
G1 X166.087 Y139.03 E5.43469
G1 X166.458 Y139.68 E5.44962
G1 X166.757 Y140.366 E5.46456
G1 X166.981 Y141.08 E5.47949
G1 X167.128 Y141.813 E5.49441
G1 X167.2 Y142.817 E5.5145
G1 X167.2 Y152.583 E5.70939
G1 X167.16 Y153.33 E5.72432
G1 X167.041 Y154.068 E5.73924
G1 X166.843 Y154.79 E5.75418
G1 X166.57 Y155.486 E5.7691
G1 X166.223 Y156.149 E5.78403
G1 X165.808 Y156.772 E5.79897
G1 X165.15 Y157.533 E5.81904
G1 X165.033 Y157.65 E5.82235
G1 X164.476 Y158.15 E5.83728
G1 X163.87 Y158.587 E5.85219
G1 X163.22 Y158.958 E5.86713
G1 X162.534 Y159.257 E5.88206
G1 X161.82 Y159.481 E5.897
G1 X161.087 Y159.628 E5.91191
G1 X160.083 Y159.7 E5.932
G1 X135.317 Y159.7 E6.42623
G1 X134.57 Y159.66 E6.44116
G1 X133.832 Y159.541 E6.45608
G1 X133.11 Y159.343 E6.47102
G1 X132.414 Y159.07 E6.48594
G1 X131.751 Y158.723 E6.50087
G1 X131.128 Y158.308 E6.51581
G1 X130.367 Y157.65 E6.53589
G1 X130.25 Y157.533 E6.53919
G1 X129.75 Y156.976 E6.55413
G1 X129.313 Y156.37 E6.56904
G1 X128.942 Y155.72 E6.58397
G1 X128.643 Y155.034 E6.59891
G1 X128.419 Y154.32 E6.61384
G1 X128.272 Y153.587 E6.62876
G1 X128.2 Y152.583 E6.64885
G1 X128.2 Y142.817 E6.84374
G1 X128.24 Y142.07 E6.85867
G1 X128.359 Y141.332 E6.87358
G1 X128.557 Y140.61 E6.88852
G1 X128.83 Y139.914 E6.90344
G1 X129.177 Y139.251 E6.91838
G1 X129.592 Y138.628 E6.93332
G1 X130.25 Y137.867 E6.95339
G1 X130.367 Y137.75 E6.95669
G0 F3600 X130.65 Y138.033
G1 F1050 X131.191 Y137.549 E6.97118
G1 X131.782 Y137.126 E6.98568
G1 X132.416 Y136.772 E7.00018
G1 X133.085 Y136.489 E7.01467
G1 X133.781 Y136.281 E7.02917
G1 X134.496 Y136.151 E7.04367
G1 X135.317 Y136.1 E7.06009
G1 X160.083 Y136.1 E7.55432
G1 X160.808 Y136.14 E7.56881
G1 X161.525 Y136.259 E7.58331
G1 X162.224 Y136.457 E7.59781
G1 X162.897 Y136.73 E7.6123
G1 X163.536 Y137.075 E7.6268
G1 X164.133 Y137.489 E7.64129
G1 X164.75 Y138.033 E7.65771
G1 X164.867 Y138.15 E7.66101
G1 X165.351 Y138.691 E7.6755
G1 X165.774 Y139.282 E7.69
G1 X166.128 Y139.916 E7.70449
G1 X166.411 Y140.585 E7.71899
G1 X166.619 Y141.281 E7.73348
G1 X166.749 Y141.996 E7.74799
G1 X166.8 Y142.817 E7.7644
G1 X166.8 Y152.583 E7.95929
G1 X166.76 Y153.308 E7.97378
G1 X166.641 Y154.025 E7.98829
G1 X166.443 Y154.724 E8.00279
G1 X166.17 Y155.397 E8.01728
G1 X165.825 Y156.036 E8.03177
G1 X165.411 Y156.633 E8.04627
G1 X164.867 Y157.25 E8.06268
G1 X164.75 Y157.367 E8.06599
G1 X164.209 Y157.851 E8.08047
G1 X163.618 Y158.274 E8.09498
G1 X162.984 Y158.628 E8.10947
G1 X162.315 Y158.911 E8.12396
G1 X161.619 Y159.119 E8.13846
G1 X160.904 Y159.249 E8.15296
G1 X160.083 Y159.3 E8.16938
G1 X135.317 Y159.3 E8.66361
G1 X134.592 Y159.26 E8.6781
G1 X133.875 Y159.141 E8.6926
G1 X133.176 Y158.943 E8.7071
G1 X132.503 Y158.67 E8.7216
G1 X131.864 Y158.325 E8.73609
G1 X131.267 Y157.911 E8.75059
G1 X130.65 Y157.367 E8.767
G1 X130.533 Y157.25 E8.7703
G1 X130.049 Y156.709 E8.78479
G1 X129.626 Y156.118 E8.79929
G1 X129.272 Y155.484 E8.81378
G1 X128.989 Y154.815 E8.82828
G1 X128.781 Y154.119 E8.84278
G1 X128.651 Y153.404 E8.85728
G1 X128.6 Y152.583 E8.87369
G1 X128.6 Y142.817 E9.06859
G1 X128.64 Y142.092 E9.08308
G1 X128.759 Y141.375 E9.09758
G1 X128.957 Y140.676 E9.11208
G1 X129.23 Y140.003 E9.12657
G1 X129.575 Y139.364 E9.14106
G1 X129.989 Y138.767 E9.15556
G1 X130.533 Y138.15 E9.17198
G1 X130.65 Y138.033 E9.17528
G0 F3600 X130.933 Y138.316
G1 F1050 X131.458 Y137.847 E9.18933
G1 X132.033 Y137.441 E9.20337
G1 X132.651 Y137.103 E9.21743
G1 X133.302 Y136.836 E9.23147
G1 X133.98 Y136.646 E9.24552
G1 X134.675 Y136.533 E9.25958
G1 X135.317 Y136.5 E9.2724
G1 X160.083 Y136.5 E9.76664
G1 X160.786 Y136.54 E9.78069
G1 X161.48 Y136.659 E9.79474
G1 X162.155 Y136.857 E9.80878
G1 X162.804 Y137.129 E9.82282
G1 X163.418 Y137.474 E9.83688
G1 X163.989 Y137.885 E9.85092
G1 X164.467 Y138.316 E9.86376
G1 X164.584 Y138.433 E9.86706
G1 X165.053 Y138.958 E9.88111
G1 X165.459 Y139.533 E9.89516
G1 X165.797 Y140.151 E9.90921
G1 X166.064 Y140.802 E9.92326
G1 X166.254 Y141.48 E9.93731
G1 X166.367 Y142.175 E9.95136
G1 X166.4 Y142.817 E9.96419
G1 X166.4 Y152.583 E10.15908
G1 X166.36 Y153.286 E10.17313
G1 X166.241 Y153.98 E10.18718
G1 X166.043 Y154.655 E10.20122
G1 X165.771 Y155.304 E10.21526
G1 X165.426 Y155.918 E10.22932
G1 X165.015 Y156.489 E10.24336
G1 X164.584 Y156.967 E10.2562
G1 X164.467 Y157.084 E10.2595
G1 X163.942 Y157.553 E10.27355
G1 X163.367 Y157.959 E10.2876
G1 X162.749 Y158.297 E10.30166
G1 X162.098 Y158.564 E10.3157
G1 X161.42 Y158.754 E10.32975
G1 X160.725 Y158.867 E10.3438
G1 X160.083 Y158.9 E10.35663
G1 X135.317 Y158.9 E10.85086
G1 X134.614 Y158.86 E10.86491
G1 X133.92 Y158.741 E10.87897
G1 X133.245 Y158.543 E10.893
G1 X132.596 Y158.271 E10.90705
G1 X131.982 Y157.926 E10.9211
G1 X131.411 Y157.515 E10.93514
G1 X130.933 Y157.084 E10.94799
G1 X130.816 Y156.967 E10.95129
G1 X130.347 Y156.442 E10.96534
G1 X129.941 Y155.867 E10.97938
G1 X129.603 Y155.249 E10.99344
G1 X129.336 Y154.598 E11.00748
G1 X129.146 Y153.92 E11.02153
G1 X129.033 Y153.225 E11.03558
G1 X129 Y152.583 E11.04841
G1 X129 Y142.817 E11.2433
G1 X129.04 Y142.114 E11.25736
G1 X129.159 Y141.42 E11.27141
G1 X129.357 Y140.745 E11.28545
G1 X129.629 Y140.096 E11.29949
G1 X129.974 Y139.482 E11.31354
G1 X130.385 Y138.911 E11.32758
G1 X130.816 Y138.433 E11.34043
G1 X130.933 Y138.316 E11.34373
G0 F3600 X131.216 Y138.599
G1 F1050 X131.725 Y138.146 E11.35733
G1 X132.283 Y137.757 E11.3709
G1 X132.883 Y137.435 E11.38449
G1 X133.517 Y137.186 E11.39808
G1 X134.176 Y137.013 E11.41168
G1 X134.85 Y136.919 E11.42526
G1 X135.317 Y136.9 E11.43459
G1 X160.083 Y136.9 E11.92882
G1 X160.763 Y136.94 E11.94241
G1 X161.433 Y137.059 E11.95599
G1 X162.085 Y137.256 E11.96959
G1 X162.709 Y137.528 E11.98317
G1 X163.297 Y137.872 E11.99676
G1 X163.841 Y138.282 E12.01036
G1 X164.301 Y138.716 E12.02298
G1 X164.754 Y139.225 E12.03658
G1 X165.143 Y139.783 E12.05015
G1 X165.465 Y140.383 E12.06374
G1 X165.714 Y141.017 E12.07733
G1 X165.887 Y141.676 E12.09093
G1 X165.981 Y142.35 E12.10451
G1 X166 Y142.817 E12.11384
G1 X166 Y152.583 E12.30873
G1 X165.96 Y153.263 E12.32232
G1 X165.841 Y153.933 E12.3359
G1 X165.644 Y154.585 E12.34949
G1 X165.372 Y155.209 E12.36308
G1 X165.028 Y155.797 E12.37667
G1 X164.618 Y156.341 E12.39027
G1 X164.184 Y156.801 E12.40289
G1 X163.675 Y157.254 E12.41649
G1 X163.117 Y157.643 E12.43006
G1 X162.517 Y157.965 E12.44365
G1 X161.883 Y158.214 E12.45724
G1 X161.224 Y158.387 E12.47084
G1 X160.55 Y158.481 E12.48442
G1 X160.083 Y158.5 E12.49375
G1 X135.317 Y158.5 E12.98798
G1 X134.637 Y158.46 E13.00157
G1 X133.967 Y158.341 E13.01515
G1 X133.315 Y158.144 E13.02875
G1 X132.691 Y157.872 E13.04233
G1 X132.103 Y157.528 E13.05592
G1 X131.559 Y157.118 E13.06952
G1 X131.099 Y156.684 E13.08214
G1 X130.646 Y156.175 E13.09574
G1 X130.257 Y155.617 E13.10931
G1 X129.935 Y155.017 E13.1229
G1 X129.686 Y154.383 E13.13649
G1 X129.513 Y153.724 E13.15009
G1 X129.419 Y153.05 E13.16367
G1 X129.4 Y152.583 E13.173
G1 X129.4 Y142.817 E13.36789
G1 X129.44 Y142.137 E13.38148
G1 X129.559 Y141.467 E13.39506
G1 X129.756 Y140.815 E13.40865
G1 X130.028 Y140.191 E13.42224
G1 X130.372 Y139.603 E13.43583
G1 X130.782 Y139.059 E13.44943
G1 X131.216 Y138.599 E13.46205
G0 F3600 X131.499 Y138.882
G1 F1050 X131.991 Y138.446 E13.47517
G1 X132.532 Y138.074 E13.48827
G1 X133.114 Y137.77 E13.50137
G1 X133.729 Y137.539 E13.51448
G1 X134.368 Y137.384 E13.5276
G1 X135.317 Y137.3 E13.54662
G1 X160.083 Y137.3 E14.04085
G1 X160.739 Y137.34 E14.05396
G1 X161.385 Y137.459 E14.06707
G1 X162.012 Y137.656 E14.08019
G1 X162.61 Y137.928 E14.0933
G1 X163.171 Y138.27 E14.10641
G1 X163.901 Y138.882 E14.12542
G1 X164.018 Y138.999 E14.12872
G1 X164.454 Y139.491 E14.14184
G1 X164.826 Y140.032 E14.15494
G1 X165.13 Y140.614 E14.16805
G1 X165.361 Y141.229 E14.18116
G1 X165.516 Y141.868 E14.19428
G1 X165.6 Y142.817 E14.21329
G1 X165.6 Y152.583 E14.40818
G1 X165.56 Y153.239 E14.4213
G1 X165.441 Y153.885 E14.43441
G1 X165.244 Y154.512 E14.44752
G1 X164.972 Y155.11 E14.46063
G1 X164.63 Y155.671 E14.47374
G1 X164.018 Y156.401 E14.49275
G1 X163.901 Y156.518 E14.49606
G1 X163.409 Y156.954 E14.50918
G1 X162.868 Y157.326 E14.52228
G1 X162.286 Y157.63 E14.53538
G1 X161.671 Y157.861 E14.54849
G1 X161.032 Y158.016 E14.56161
G1 X160.083 Y158.1 E14.58063
G1 X135.317 Y158.1 E15.07486
G1 X134.661 Y158.06 E15.08797
G1 X134.015 Y157.941 E15.10108
G1 X133.388 Y157.744 E15.1142
G1 X132.79 Y157.472 E15.12731
G1 X132.229 Y157.13 E15.14042
G1 X131.499 Y156.518 E15.15943
G1 X131.382 Y156.401 E15.16273
G1 X130.946 Y155.909 E15.17585
G1 X130.574 Y155.368 E15.18895
G1 X130.27 Y154.786 E15.20206
G1 X130.039 Y154.171 E15.21517
G1 X129.884 Y153.532 E15.22829
G1 X129.8 Y152.583 E15.2473
G1 X129.8 Y142.817 E15.44219
G1 X129.84 Y142.161 E15.45531
G1 X129.959 Y141.515 E15.46842
G1 X130.156 Y140.888 E15.48153
G1 X130.428 Y140.29 E15.49464
G1 X130.77 Y139.729 E15.50775
G1 X131.382 Y138.999 E15.52676
G1 X131.499 Y138.882 E15.53006
G0 F3600 X131.781 Y139.164
G1 F1050 X132.256 Y138.747 E15.54268
G1 X132.779 Y138.392 E15.55529
G1 X133.343 Y138.106 E15.56791
G1 X133.938 Y137.894 E15.58052
G1 X134.556 Y137.758 E15.59315
G1 X135.317 Y137.7 E15.60838
G1 X160.083 Y137.7 E16.10261
G1 X160.714 Y137.74 E16.11523
G1 X161.335 Y137.859 E16.12784
G1 X161.935 Y138.056 E16.14045
G1 X162.507 Y138.327 E16.15308
G1 X163.039 Y138.667 E16.16568
G1 X163.619 Y139.164 E16.18092
G1 X163.736 Y139.281 E16.18422
G1 X164.153 Y139.756 E16.19684
G1 X164.508 Y140.279 E16.20945
G1 X164.794 Y140.843 E16.22207
G1 X165.006 Y141.438 E16.23467
G1 X165.142 Y142.056 E16.2473
G1 X165.2 Y142.817 E16.26253
G1 X165.2 Y152.583 E16.45742
G1 X165.16 Y153.214 E16.47004
G1 X165.041 Y153.835 E16.48266
G1 X164.844 Y154.435 E16.49526
G1 X164.573 Y155.007 E16.50789
G1 X164.233 Y155.539 E16.52049
G1 X163.736 Y156.119 E16.53574
G1 X163.619 Y156.236 E16.53904
G1 X163.144 Y156.653 E16.55165
G1 X162.621 Y157.008 E16.56427
G1 X162.057 Y157.294 E16.57689
G1 X161.462 Y157.506 E16.58949
G1 X160.844 Y157.642 E16.60212
G1 X160.083 Y157.7 E16.61735
G1 X135.317 Y157.7 E17.11158
G1 X134.686 Y157.66 E17.1242
G1 X134.065 Y157.541 E17.13682
G1 X133.465 Y157.344 E17.14942
G1 X132.893 Y157.073 E17.16205
G1 X132.361 Y156.733 E17.17465
G1 X131.781 Y156.236 E17.18989
G1 X131.664 Y156.119 E17.1932
G1 X131.247 Y155.644 E17.20581
G1 X130.892 Y155.121 E17.21842
G1 X130.606 Y154.557 E17.23104
G1 X130.394 Y153.962 E17.24365
G1 X130.258 Y153.344 E17.25628
G1 X130.2 Y152.583 E17.27151
G1 X130.2 Y142.817 E17.4664
G1 X130.24 Y142.186 E17.47902
G1 X130.359 Y141.565 E17.49163
G1 X130.556 Y140.965 E17.50424
