;FLAVOR:Marlin
;TIME:1381
;Filament used: 0.299151m
;Layer height: 0.1
;MINX:170.9
;MINY:178.4
;MINZ:0.3
;MAXX:219.5
;MAXY:212
;MAXZ:17
;Generated with Cura_SteamEngine 4.8.0
M140 S80
M105
M190 S80
M104 S207
M105
M109 S207
M82 ;absolute extrusion mode
M201 X500.00 Y500.00 Z100.00 E5000.00 ;Setup machine max acceleration
M203 X500.00 Y500.00 Z10.00 E50.00 ;Setup machine max feedrate
M204 P500.00 R1000.00 T500.00 ;Setup Print/Retract/Travel acceleration
M205 X8.00 Y8.00 Z0.40 E5.00 ;Setup Jerk
M220 S100 ;Reset Feedrate
M221 S100 ;Reset Flowrate

G28 ;Home

G92 E0 ;Reset Extruder
G1 Z2.0 F3000 ;Move Z Axis up
G1 X10.1 Y20 Z0.28 F5000.0 ;Move to start position
G1 X10.1 Y200.0 Z0.28 F1500.0 E15 ;Draw the first line
G1 X10.4 Y200.0 Z0.28 F5000.0 ;Move to side a little
G1 X10.4 Y20 Z0.28 F1500.0 E30 ;Draw the second line
G92 E0 ;Reset Extruder
G1 Z2.0 F3000 ;Move Z Axis up

G92 E0
G92 E0
G1 F2400 E-3
;LAYER_COUNT:168
;LAYER:0
M107
G0 F6000 X174.806 Y181.446 Z0.3
;TYPE:SKIRT
G1 F2400 E0
G1 F1800 X175.554 Y180.826 E0.04847
G1 X176.35 Y180.269 E0.09694
G1 X177.189 Y179.78 E0.14539
G1 X178.066 Y179.361 E0.19388
G1 X178.974 Y179.016 E0.24234
G1 X179.907 Y178.747 E0.29078
G1 X180.859 Y178.555 E0.33924
G1 X181.824 Y178.442 E0.38771
G1 X182.378 Y178.414 E0.41538
G1 X182.699 Y178.405 E0.4314
G1 X183.03 Y178.4 E0.44792
G1 X206.993 Y178.4 E1.64344
G1 X207.86 Y178.411 E1.6867
G1 X208.83 Y178.465 E1.73516
G1 X209.792 Y178.599 E1.78362
G1 X210.74 Y178.811 E1.83209
G1 X211.667 Y179.1 E1.88053
G1 X212.568 Y179.465 E1.92903
G1 X213.435 Y179.902 E1.97747
G1 X214.263 Y180.41 E2.02593
G1 X215.047 Y180.984 E2.07441
G1 X215.781 Y181.62 E2.12286
G1 X216.46 Y182.314 E2.1713
G1 X217.08 Y183.062 E2.21977
G1 X217.636 Y183.859 E2.26826
G1 X218.125 Y184.698 E2.3167
G1 X218.543 Y185.575 E2.36517
G1 X218.887 Y186.484 E2.41366
G1 X219.156 Y187.417 E2.46211
G1 X219.347 Y188.37 E2.5106
G1 X219.458 Y189.334 E2.55901
G1 X219.486 Y189.878 E2.58618
G1 X219.495 Y190.198 E2.60216
G1 X219.5 Y190.53 E2.61872
G1 X219.499 Y199.61 E3.07172
G1 X219.49 Y200.337 E3.108
G1 X219.438 Y201.307 E3.15646
G1 X219.306 Y202.27 E3.20495
G1 X219.096 Y203.218 E3.2534
G1 X218.809 Y204.146 E3.30186
G1 X218.446 Y205.047 E3.35032
G1 X218.01 Y205.915 E3.39878
G1 X217.504 Y206.744 E3.44724
G1 X216.932 Y207.529 E3.49569
G1 X216.297 Y208.264 E3.54415
G1 X215.604 Y208.945 E3.59263
G1 X214.857 Y209.566 E3.64109
G1 X214.061 Y210.124 E3.68959
G1 X213.223 Y210.614 E3.73802
G1 X212.347 Y211.034 E3.78649
G1 X211.439 Y211.38 E3.83496
G1 X210.506 Y211.65 E3.88342
G1 X209.554 Y211.843 E3.93188
G1 X208.589 Y211.957 E3.98036
G1 X208.022 Y211.986 E4.00869
G1 X207.701 Y211.995 E4.02471
G1 X207.37 Y212 E4.04122
G1 X183.255 Y211.999 E5.24433
G1 X182.557 Y211.99 E5.27915
G1 X181.587 Y211.938 E5.32761
G1 X180.625 Y211.805 E5.37607
G1 X179.676 Y211.595 E5.42456
G1 X178.749 Y211.307 E5.47299
G1 X177.848 Y210.943 E5.52147
G1 X176.98 Y210.507 E5.56993
G1 X176.151 Y210.001 E5.61838
G1 X175.366 Y209.428 E5.66687
G1 X174.631 Y208.793 E5.71533
G1 X173.951 Y208.099 E5.7638
G1 X173.33 Y207.352 E5.81227
G1 X172.773 Y206.556 E5.86074
G1 X172.283 Y205.718 E5.90917
G1 X171.864 Y204.841 E5.95766
G1 X171.518 Y203.934 E6.00609
G1 X171.248 Y203 E6.05459
G1 X171.056 Y202.048 E6.10305
G1 X170.943 Y201.083 E6.15152
G1 X170.913 Y200.51 E6.18015
G1 X170.904 Y200.177 E6.19676
G1 X170.9 Y199.858 E6.21268
G1 X170.901 Y190.714 E6.66888
G1 X170.91 Y190.049 E6.70206
G1 X170.963 Y189.079 E6.75052
G1 X171.096 Y188.117 E6.79897
G1 X171.307 Y187.169 E6.84743
G1 X171.596 Y186.241 E6.89592
G1 X171.96 Y185.341 E6.94435
G1 X172.397 Y184.473 E6.99284
G1 X172.904 Y183.644 E7.04132
G1 X173.477 Y182.86 E7.08976
G1 X174.112 Y182.126 E7.13818
G1 X174.806 Y181.446 E7.18666
G0 F6000 X175.196 Y181.635
G1 F1800 X175.94 Y181.036 E7.23431
G1 X176.732 Y180.502 E7.28197
G1 X177.565 Y180.036 E7.32959
G1 X178.434 Y179.641 E7.37721
G1 X179.333 Y179.32 E7.42483
G1 X180.256 Y179.076 E7.47247
G1 X181.197 Y178.91 E7.52014
G1 X182.389 Y178.813 E7.5798
G1 X182.71 Y178.804 E7.59582
G1 X183.03 Y178.8 E7.61179
G1 X206.993 Y178.8 E8.80731
G1 X207.854 Y178.811 E8.85027
G1 X208.808 Y178.865 E8.89794
G1 X209.753 Y178.998 E8.94555
G1 X210.684 Y179.21 E8.99319
G1 X211.594 Y179.499 E9.04082
G1 X212.477 Y179.863 E9.08847
G1 X213.326 Y180.3 E9.13611
G1 X214.135 Y180.806 E9.18372
G1 X214.899 Y181.378 E9.23133
G1 X215.613 Y182.012 E9.27897
G1 X216.271 Y182.704 E9.32661
G1 X216.869 Y183.448 E9.37423
G1 X217.403 Y184.24 E9.42189
G1 X217.868 Y185.074 E9.46952
G1 X218.263 Y185.943 E9.51715
G1 X218.582 Y186.843 E9.56479
G1 X218.826 Y187.766 E9.61242
G1 X218.991 Y188.707 E9.66008
G1 X219.086 Y189.89 E9.71929
G1 X219.095 Y190.21 E9.73526
G1 X219.1 Y190.53 E9.75123
G1 X219.099 Y199.605 E10.20398
G1 X219.09 Y200.332 E10.24025
G1 X219.038 Y201.285 E10.28787
G1 X218.907 Y202.231 E10.33552
G1 X218.697 Y203.163 E10.38318
G1 X218.41 Y204.073 E10.43078
G1 X218.047 Y204.956 E10.47841
G1 X217.612 Y205.806 E10.52605
G1 X217.107 Y206.617 E10.57372
G1 X216.537 Y207.382 E10.62131
G1 X215.904 Y208.097 E10.66895
G1 X215.214 Y208.757 E10.71659
G1 X214.47 Y209.356 E10.76424
G1 X213.68 Y209.891 E10.81184
G1 X212.847 Y210.358 E10.85949
G1 X211.978 Y210.754 E10.90713
G1 X211.079 Y211.076 E10.95477
G1 X210.156 Y211.321 E11.00242
G1 X209.216 Y211.488 E11.05005
G1 X208.011 Y211.587 E11.11037
G1 X207.69 Y211.596 E11.12639
G1 X207.37 Y211.6 E11.14236
G1 X183.26 Y211.599 E12.34521
G1 X182.562 Y211.59 E12.38003
G1 X181.609 Y211.538 E12.42765
G1 X180.663 Y211.406 E12.4753
G1 X179.732 Y211.195 E12.52293
G1 X178.821 Y210.908 E12.57058
G1 X177.938 Y210.545 E12.61821
G1 X177.089 Y210.109 E12.66583
G1 X176.278 Y209.604 E12.71349
G1 X175.513 Y209.033 E12.76112
G1 X174.799 Y208.4 E12.80872
G1 X174.139 Y207.709 E12.85639
G1 X173.54 Y206.966 E12.90401
G1 X173.006 Y206.175 E12.95162
G1 X172.539 Y205.342 E12.99927
G1 X172.144 Y204.473 E13.04689
G1 X171.822 Y203.574 E13.09453
G1 X171.578 Y202.651 E13.14216
G1 X171.411 Y201.711 E13.18979
G1 X171.313 Y200.499 E13.25046
G1 X171.304 Y200.166 E13.26708
G1 X171.3 Y199.858 E13.28244
G1 X171.301 Y190.72 E13.73834
G1 X171.31 Y190.055 E13.77152
G1 X171.363 Y189.101 E13.81919
G1 X171.495 Y188.156 E13.86679
G1 X171.707 Y187.225 E13.91443
G1 X171.995 Y186.315 E13.96205
G1 X172.358 Y185.432 E14.00968
G1 X172.794 Y184.582 E14.05734
G1 X173.3 Y183.772 E14.10499
G1 X173.872 Y183.008 E14.1526
G1 X174.505 Y182.293 E14.20025
G1 X175.196 Y181.635 E14.24785
G0 F6000 X175.586 Y181.827
G1 F1800 X176.326 Y181.251 E14.29463
G1 X177.112 Y180.739 E14.34143
G1 X177.939 Y180.297 E14.38822
G1 X178.801 Y179.927 E14.43502
G1 X179.691 Y179.631 E14.48181
G1 X180.603 Y179.413 E14.52859
G1 X181.53 Y179.272 E14.57537
G1 X182.401 Y179.213 E14.61893
G1 X182.722 Y179.204 E14.63495
G1 X183.03 Y179.2 E14.65031
G1 X206.993 Y179.2 E15.84583
G1 X207.849 Y179.211 E15.88854
G1 X208.785 Y179.265 E15.93532
G1 X209.713 Y179.397 E15.98208
G1 X210.627 Y179.609 E16.02889
G1 X211.519 Y179.898 E16.07567
G1 X212.384 Y180.261 E16.12247
G1 X213.214 Y180.697 E16.16925
G1 X214.005 Y181.202 E16.21607
G1 X214.749 Y181.773 E16.26286
G1 X215.442 Y182.405 E16.30965
G1 X216.079 Y183.093 E16.35643
G1 X216.654 Y183.834 E16.40322
G1 X217.165 Y184.62 E16.44999
G1 X217.607 Y185.448 E16.49682
G1 X217.976 Y186.31 E16.5436
G1 X218.271 Y187.2 E16.59038
G1 X218.489 Y188.112 E16.63716
G1 X218.629 Y189.04 E16.68398
G1 X218.687 Y189.901 E16.72703
G1 X218.696 Y190.221 E16.743
G1 X218.7 Y190.53 E16.75842
G1 X218.699 Y199.6 E17.21093
G1 X218.69 Y200.327 E17.2472
G1 X218.639 Y201.264 E17.29402
G1 X218.507 Y202.192 E17.34078
G1 X218.298 Y203.106 E17.38756
G1 X218.011 Y203.999 E17.43435
G1 X217.649 Y204.865 E17.48118
G1 X217.215 Y205.696 E17.52795
G1 X216.711 Y206.487 E17.57475
G1 X216.142 Y207.232 E17.62151
G1 X215.511 Y207.927 E17.66835
G1 X214.824 Y208.565 E17.71512
G1 X214.085 Y209.142 E17.7619
G1 X213.299 Y209.654 E17.8087
G1 X212.473 Y210.097 E17.85546
G1 X211.611 Y210.469 E17.9023
G1 X210.722 Y210.765 E17.94904
G1 X209.81 Y210.985 E17.99585
G1 X208.883 Y211.126 E18.04263
G1 X207.999 Y211.187 E18.08684
G1 X207.678 Y211.196 E18.10286
G1 X207.37 Y211.2 E18.11823
G1 X183.265 Y211.199 E19.32083
G1 X182.567 Y211.19 E19.35566
G1 X181.631 Y211.138 E19.40243
G1 X180.702 Y211.006 E19.44924
G1 X179.788 Y210.796 E19.49603
G1 X178.895 Y210.509 E19.54282
G1 X178.03 Y210.146 E19.58962
G1 X177.199 Y209.712 E19.6364
G1 X176.408 Y209.208 E19.68319
G1 X175.663 Y208.638 E19.72999
G1 X174.969 Y208.007 E19.77678
G1 X174.332 Y207.32 E19.82352
G1 X173.755 Y206.58 E19.87034
G1 X173.243 Y205.794 E19.91714
G1 X172.8 Y204.967 E19.96395
G1 X172.429 Y204.106 E20.01072
G1 X172.133 Y203.216 E20.05751
G1 X171.914 Y202.304 E20.10431
G1 X171.773 Y201.377 E20.15109
G1 X171.713 Y200.488 E20.19554
G1 X171.704 Y200.155 E20.21216
G1 X171.7 Y199.858 E20.22698
G1 X171.701 Y190.725 E20.68263
G1 X171.71 Y190.06 E20.71581
G1 X171.763 Y189.124 E20.76258
G1 X171.895 Y188.195 E20.80939
G1 X172.106 Y187.281 E20.85619
G1 X172.394 Y186.389 E20.90295
G1 X172.757 Y185.524 E20.94975
G1 X173.192 Y184.693 E20.99655
G1 X173.696 Y183.903 E21.0433
G1 X174.266 Y183.158 E21.0901
G1 X174.898 Y182.464 E21.13693
G1 X175.586 Y181.827 E21.18371
G0 F6000 X175.289 Y182.639
G1 F1800 X175.974 Y182.023 E21.22967
G1 X176.71 Y181.47 E21.2756
G1 X177.491 Y180.982 E21.32154
G1 X178.311 Y180.564 E21.36746
G1 X179.165 Y180.219 E21.41341
G1 X180.045 Y179.949 E21.45934
G1 X180.945 Y179.757 E21.50525
G1 X181.859 Y179.643 E21.5512
G1 X182.412 Y179.613 E21.57883
G1 X182.733 Y179.604 E21.59485
G1 X183.03 Y179.6 E21.60967
G1 X206.993 Y179.6 E22.80519
G1 X207.843 Y179.611 E22.8476
G1 X208.762 Y179.664 E22.89352
G1 X209.673 Y179.797 E22.93946
G1 X210.569 Y180.008 E22.98538
G1 X211.443 Y180.296 E23.03129
G1 X212.29 Y180.659 E23.07727
G1 X213.101 Y181.094 E23.12318
G1 X213.871 Y181.598 E23.16909
G1 X214.595 Y182.167 E23.21503
G1 X215.267 Y182.797 E23.26099
G1 X215.882 Y183.482 E23.30692
G1 X216.435 Y184.218 E23.35284
G1 X216.922 Y184.999 E23.39876
G1 X217.339 Y185.82 E23.4447
G1 X217.684 Y186.674 E23.49066
G1 X217.953 Y187.554 E23.53656
G1 X218.145 Y188.455 E23.58252
G1 X218.258 Y189.368 E23.62842
G1 X218.287 Y189.912 E23.6556
G1 X218.296 Y190.232 E23.67157
G1 X218.3 Y190.53 E23.68644
G1 X218.299 Y199.595 E24.13869
G1 X218.29 Y200.322 E24.17497
G1 X218.239 Y201.241 E24.22089
G1 X218.108 Y202.153 E24.26685
G1 X217.898 Y203.049 E24.31277
G1 X217.612 Y203.924 E24.35869
G1 X217.251 Y204.771 E24.40463
G1 X216.817 Y205.583 E24.45056
G1 X216.315 Y206.355 E24.49651
G1 X215.747 Y207.08 E24.54245
G1 X215.119 Y207.753 E24.58838
G1 X214.435 Y208.369 E24.6343
G1 X213.7 Y208.923 E24.68022
G1 X212.92 Y209.412 E24.72615
G1 X212.1 Y209.831 E24.77209
G1 X211.247 Y210.177 E24.81802
G1 X210.367 Y210.448 E24.86395
G1 X209.467 Y210.641 E24.90988
G1 X208.553 Y210.756 E24.95583
G1 X207.988 Y210.787 E24.98407
G1 X207.667 Y210.796 E25.00009
G1 X207.37 Y210.8 E25.0149
G1 X183.27 Y210.799 E26.21726
G1 X182.572 Y210.79 E26.25209
G1 X181.653 Y210.738 E26.29801
G1 X180.742 Y210.607 E26.34393
G1 X179.846 Y210.397 E26.38984
G1 X178.971 Y210.11 E26.43578
G1 X178.124 Y209.748 E26.48173
G1 X177.312 Y209.314 E26.52767
G1 X176.541 Y208.812 E26.57357
G1 X175.816 Y208.244 E26.61952
G1 X175.143 Y207.615 E26.66548
G1 X174.528 Y206.931 E26.71137
G1 X173.974 Y206.196 E26.75729
G1 X173.486 Y205.415 E26.80323
G1 X173.067 Y204.595 E26.84917
G1 X172.721 Y203.742 E26.8951
G1 X172.451 Y202.862 E26.94102
G1 X172.258 Y201.961 E26.98699
G1 X172.144 Y201.048 E27.03289
G1 X172.113 Y200.477 E27.06142
G1 X172.104 Y200.144 E27.07804
G1 X172.1 Y199.858 E27.09231
G1 X172.101 Y190.731 E27.54766
G1 X172.11 Y190.066 E27.58084
G1 X172.162 Y189.146 E27.62681
G1 X172.294 Y188.235 E27.67274
G1 X172.505 Y187.339 E27.71866
G1 X172.792 Y186.464 E27.7646
G1 X173.155 Y185.618 E27.81053
G1 X173.589 Y184.806 E27.85647
G1 X174.092 Y184.035 E27.90239
G1 X174.661 Y183.311 E27.94833
G1 X175.289 Y182.639 E27.99422
G0 F6000 X175.681 Y182.817
G1 F1800 X176.362 Y182.224 E28.03927
G1 X177.094 Y181.694 E28.08436
G1 X177.869 Y181.231 E28.1294
G1 X178.682 Y180.838 E28.17445
G1 X179.527 Y180.518 E28.21953
G1 X180.396 Y180.275 E28.26455
G1 X181.284 Y180.109 E28.30962
G1 X182.423 Y180.013 E28.36664
G1 X182.744 Y180.004 E28.38266
G1 X183.03 Y180 E28.39693
G1 X206.993 Y180 E29.59245
G1 X207.837 Y180.011 E29.63456
G1 X208.739 Y180.064 E29.67964
G1 X209.632 Y180.196 E29.72468
G1 X210.51 Y180.407 E29.76973
G1 X211.366 Y180.695 E29.81479
G1 X212.193 Y181.057 E29.85983
G1 X212.985 Y181.492 E29.90491
G1 X213.736 Y181.994 E29.94997
G1 X214.439 Y182.561 E29.99503
G1 X215.089 Y183.188 E30.04009
G1 X215.681 Y183.87 E30.08515
G1 X216.211 Y184.601 E30.13019
G1 X216.673 Y185.377 E30.17525
G1 X217.066 Y186.19 E30.2203
G1 X217.384 Y187.035 E30.26534
G1 X217.627 Y187.905 E30.31041
G1 X217.792 Y188.793 E30.35547
G1 X217.887 Y189.923 E30.41205
G1 X217.896 Y190.243 E30.42802
G1 X217.9 Y190.53 E30.44234
G1 X217.899 Y199.59 E30.89434
G1 X217.89 Y200.317 E30.93062
G1 X217.839 Y201.219 E30.97569
G1 X217.708 Y202.113 E31.02077
G1 X217.499 Y202.991 E31.06579
G1 X217.213 Y203.848 E31.11087
G1 X216.852 Y204.676 E31.15593
G1 X216.42 Y205.468 E31.20094
G1 X215.919 Y206.22 E31.24602
G1 X215.353 Y206.924 E31.29109
G1 X214.728 Y207.575 E31.33611
G1 X214.047 Y208.169 E31.3812
G1 X213.316 Y208.7 E31.42627
G1 X212.542 Y209.164 E31.47129
G1 X211.729 Y209.558 E31.51637
G1 X210.885 Y209.878 E31.5614
G1 X210.015 Y210.123 E31.60649
G1 X209.128 Y210.289 E31.65151
G1 X207.977 Y210.387 E31.70914
G1 X207.656 Y210.396 E31.72517
G1 X207.37 Y210.4 E31.73944
G1 X183.275 Y210.399 E32.94154
G1 X182.577 Y210.39 E32.97637
G1 X181.676 Y210.339 E33.02139
G1 X180.782 Y210.207 E33.06647
G1 X179.904 Y209.998 E33.1115
G1 X179.047 Y209.711 E33.15659
G1 X178.22 Y209.35 E33.20161
G1 X177.427 Y208.917 E33.24669
G1 X176.676 Y208.416 E33.29173
G1 X175.972 Y207.85 E33.33679
G1 X175.321 Y207.224 E33.38185
G1 X174.728 Y206.543 E33.4269
G1 X174.198 Y205.812 E33.47195
G1 X173.734 Y205.037 E33.51701
G1 X173.34 Y204.224 E33.56209
G1 X173.02 Y203.38 E33.60712
G1 X172.776 Y202.51 E33.6522
G1 X172.61 Y201.622 E33.69727
G1 X172.513 Y200.467 E33.75509
G1 X172.504 Y200.134 E33.77171
G1 X172.5 Y199.858 E33.78548
G1 X172.501 Y190.736 E34.24058
G1 X172.51 Y190.071 E34.27376
G1 X172.562 Y189.169 E34.31884
G1 X172.694 Y188.276 E34.36387
G1 X172.904 Y187.398 E34.40891
G1 X173.191 Y186.541 E34.454
G1 X173.553 Y185.714 E34.49904
G1 X173.986 Y184.922 E34.54408
G1 X174.488 Y184.171 E34.58914
G1 X175.055 Y183.467 E34.63424
G1 X175.681 Y182.817 E34.67926
G1 F2400 E31.67926
;MESH:Retraction Test Towers z-up.stl
G0 F6000 X183.114 Y189.535
G0 X183.114 Y190.614
G0 X183.7 Y199.2
;TYPE:WALL-INNER
G1 F2400 E34.67926
G1 F1200 X183.7 Y191.2 E35.07838
G1 X206.7 Y191.2 E36.22586
G1 X206.7 Y199.2 E36.62498
G1 X183.7 Y199.2 E37.77246
G0 F6000 X183.3 Y199.6
G1 F1200 X183.3 Y190.8 E38.21149
G1 X207.1 Y190.8 E39.39888
G1 X207.1 Y199.6 E39.83791
G1 X183.3 Y199.6 E41.0253
G0 F6000 X182.9 Y200
;TYPE:WALL-OUTER
G1 F1200 X182.9 Y190.4 E41.50424
G1 X207.5 Y190.4 E42.73154
G1 X207.5 Y200 E43.21049
G1 X182.9 Y200 E44.43779
G1 F2400 E41.43779
G0 F6000 X183.2 Y199.73
G0 X203.1 Y198.99
G0 X203.1 Y195.6
;TYPE:SKIN
G1 F2400 E44.43779
G1 F1200 X187.3 Y195.6 E45.22605
G1 X187.3 Y194.8 E45.26596
G1 X203.1 Y194.8 E46.05423
G1 X203.1 Y195.6 E46.09414
G0 F6000 X203.5 Y196
G1 F1200 X186.9 Y196 E46.92232
G1 X186.9 Y194.4 E47.00214
G1 X203.5 Y194.4 E47.83032
G1 X203.5 Y196 E47.91014
G0 F6000 X203.9 Y196.4
G1 F1200 X186.5 Y196.4 E48.77823
G1 X186.5 Y194 E48.89797
G1 X203.9 Y194 E49.76606
G1 X203.9 Y196.4 E49.8858
G0 F6000 X204.3 Y196.8
G1 F1200 X186.1 Y196.8 E50.7938
G1 X186.1 Y193.6 E50.95345
G1 X204.3 Y193.6 E51.86145
G1 X204.3 Y196.8 E52.0211
G0 F6000 X204.7 Y197.2
G1 F1200 X185.7 Y197.2 E52.96901
G1 X185.7 Y193.2 E53.16857
G1 X204.7 Y193.2 E54.11649
G1 X204.7 Y197.2 E54.31605
G0 F6000 X205.1 Y197.6
G1 F1200 X185.3 Y197.6 E55.30387
G1 X185.3 Y192.8 E55.54335
G1 X205.1 Y192.8 E56.53117
G1 X205.1 Y197.6 E56.77064
G0 F6000 X205.5 Y198
G1 F1200 X184.9 Y198 E57.79838
G1 X184.9 Y192.4 E58.07777
G1 X205.5 Y192.4 E59.10551
